X:1
T:Word of God
T:William Marion Runyan, 1919
T:Word of God
T:Public Domain
T:Public Domain
T:Public Domain
C:William Marion Runyan, 1919
Z:Public Domain
%%score ( 1 2 ) ( 3 4 )
L:1/8
M:6/4
K:F
V:1 treble 
V:2 treble 
V:3 bass 
V:4 bass 
V:1
 (z2 [CF]2) [FAc]2 (z2 [CE]2) [B,FB]2 | z2 [CF]2 [CE]2 (z2 [A,C]2) [A,CF]2 | %2
w: * 1.~Word * of|* O * sac-|
w: * 2.~Fold- * ed|* thy * sac-|
w: * 3.~Word * of|* thy * theme|
w: * 4.~Word * of|* thy * o-|
 z2 [A,C]2 [A,CF]2 (z2 [CA]2) [CFA]2 | z2 [=B,D]2 [B,D]2 (z2 [CF]2 [CEG]2) | %4
w: * trea- * sure!|* and * *|
w: * pag- * es,|* the * *|
w: * Je- * sus,|* sus * *|
w: * pag- * es|* to * *|
 z2 [CF]2 [FAc]2 (z2 [CE]2) [B,FB]2 | z2 [CF]2 [CEG]2 (z2 [CFA]2) [A,CF]2 | %6
w: * herd, * king|* priest, * Moved|
w: * of * men|* see, * Is|
w: * His * dy-|* love, * How|
w: * vice, * ban-|* fear; * None|
 [CEG]2 [CEA]2 [CEB]2 (z2 [CFA]2) [A,DF]2 | z2 [=B,D]2 [_B,EG]2 [A,CF]6 || %8
w: * * God’s * own|* ly Spir-|
w: * * wis- * dom|* the ag-|
w: * * sin * He|* y frees|
w: * * i- * dle|* or list-|
"^Refrain" [FA]4 [FA]2 [Fc]6 | [FB]4 F2 [FA]6 | [Fd]4 [Fd]2 [Fc]4 F2 | [FA]4 [FG]2 [EG]6 | %12
w: * Brought to|men thy won-|feast. Word of God,|of God, Heav-|
w: * Giv- en|for our li-|ty. * * *||
w: * How He|points to realms|bove. * * *||
w: * If thy|great com- mands|hear. * * *||
 [FA]4 [FA]2 [Gc]4 [Fc]2 | [FB]4 F2 [FA]6 | [Fd]4 [^Fd]2 [Gd]4 [Gd]2 | [Ge]4 [Fd]2 ([Ed]4 [Gc]2) | %16
w: en’s light a- bides|in thee; Through|dark- ness all a-|broad, Word of *|
w: ||||
w: ||||
w: ||||
 (c2 d2) [Ge]2 [Af]4 [^G=B]2 | (A2 E2) [CE]2 [CF]6 |] %18
w: God, * shine glo- rious-|Word * of God,|
w: ||
w: ||
w: ||
V:2
 A4 G4 x4 | A4 G4 x4 | F4 c4 x4 | G4 A4 x4 | A4 G4 x4 | A4 c4 x4 | x6 c4 x2 | F4 x8 || x12 | %9
w: God, *|red *|Sage *|shep- *|and *|by *|Ho-|it,||
w: in *|red *|Where *|eyes *|may *|the *|of|es||
w: God, *|is *|Je- *|and *|ing *|from *|full-|us,||
w: God, *|pen *|Call *|ser- *|ish *|can *|be,|less,||
 x4 F2 x6 | x10 F2 | x12 | x12 | x4 F2 x6 | x12 | x12 | F4 x8 | c4 x8 |] %18
w: drous|Word|||sin’s|||ly,|shine|
w: ber-|||||||||
w: a-|||||||||
w: they|||||||||
V:3
 F,4 F,2 E,4 D,2 | C,4 B,,2 A,,4 A,,2 | F,,4 F,,2 F,,4 F,,2 | G,,4 G,,2 C,4 C,2 | F,4 F,2 E,4 D,2 | %5
w: ~ ~ ~ ~|~ ~ ~ ~|~ ~ ~ ~|~ ~ ~ ~|~ ~ ~ ~|
 C,4 B,,2 A,,4 A,,2 | C,4 B,,2 A,,4 D,2 | G,,4 C,2 F,,6 || [F,C]4 [F,C]2 [F,A,]4 [A,,C]2 | %9
w: ~ ~ ~ ~|~ ~ ~ ~|~ ~ ~|~ ~ ~ Blest|
 [B,,D]4 [B,,D]2 (z2 F,,2 A,,2) | [B,,B,]4 [D,B,]2 [F,A,]4 [D,A,]2 | %11
w: ||
 [G,,=B,]4 [G,,B,]2 (z2 =B,,2 G,,2) | [F,,F,C]4 [F,C]2 [E,C]4 [A,,C]2 | [B,,D]4 [B,,D]2 [F,C]6 | %14
w: |||
 B,4 [A,C]2 [G,B,]2 [B,,G,]2 [D,B,]2 | [G,C]4 [G,=B,]2 (C,4 E,2) | %16
w: ||
 (A,2 B,2) [E,B,]2 [D,D]4 [_D,F]2 | (F2 C2) [C,B,]2 [F,,F,A,]6 |] %18
w: ||
V:4
 x12 | x12 | x12 | x12 | x12 | x12 | x12 | x12 || x12 | x6 [F,C]6 | x12 | x6 [C,C]6 | x12 | x12 | %14
 B,4 x8 | x6 _B,6 | F,4 x8 | C,4 x8 |] %18

